img/home/sm/Gannett.svg

<svg xmlns="http://www.w3.org/2000/svg" width="37" height="36" viewBox="0 0 37 36">
  <g fill="none" fill-rule="evenodd" transform="translate(-18 -18)">
    <rect width="72" height="72" fill="none"/>
    <g fill="#48484F" transform="translate(18 18)">
      <path d="M13.1170968 34.4962193C14.9271128 35.121935 16.8702731 35.461969 18.8932522 35.461969 22.6712233 35.461969 26.1153146 34.3132771 28.9867493 32.2932894 27.8054328 31.6347635 26.880555 31.1764135 25.9155981 30.7316517 24.1986473 32.6300092 22.7191146 33.6375174 22.5479289 33.7840038 21.9389294 34.3039974 21.4817551 33.8582413 22.0150119 33.4124852 23.2737695 32.386749 24.2458592 31.4077427 25.1486594 30.3578131 24.2472178 29.9756891 23.4096311 29.6810592 22.5859702 29.456027 21.6098047 30.4701635 20.5534808 31.3179286 19.3500868 32.0748855L19.3500868 34.0067162C19.3500868 34.7497535 18.436078 34.6751846 18.436078 34.0067162L18.436078 32.5952104C16.7704149 33.5085962 15.0612761 34.1402773 13.1170968 34.4962193M31.1666485 17.2549037C31.0521851 12.3515866 28.7829569 8.07265951 26.5952457 5.47368604 27.416529 5.1449202 28.7109503 4.49467971 29.834186 3.80765191 33.8200253 6.95445797 36.4621936 11.814028 36.5997534 17.2542409L31.1666485 17.2549037M10.3241221 27.2514399C14.1394552 27.0572295 17.0159847 24.4910663 18.4418521 21.2017508L10.694345 21.2017508 10.694345 18.2077281 7.58413355 18.2077281C7.58413355 19.7030824 7.88846351 23.8166323 10.3241221 27.2514399M9.02630431 27.2325491C7.5505078 24.8330888 6.47584264 21.2534519 6.47584264 18.2073967L.0543446356 18.2067338C.296857572 22.9947177 4.15906289 26.8537393 9.02630431 27.2325491M18.3959988 14.3748885L10.694345 14.3748885 10.694345 17.2658405 7.58379389 17.2658405C7.58379389 15.7877199 7.94654434 12.1242345 10.3254808 8.15451955 13.4193888 8.30697145 16.1366206 9.95444622 17.8233422 12.2664124L18.3959988 12.2654182 18.3959988 14.3748885"/>
      <path d="M19.3687678 12.2577956L26.4301739 12.2435446C25.7128247 10.2202428 24.7023541 8.36298096 23.3087538 6.74732223 24.108639 6.52891832 24.8647087 6.20744366 25.7366004 5.8415591 29.6602831 10.737585 30.180633 15.4854674 30.180633 17.2602064L27.3818843 17.2595436C27.3577689 16.2729146 27.247721 15.307165 27.059213 14.368923L19.3687678 14.368923 19.3687678 12.2577956M9.10306611 8.16810766C7.67855735 10.5440374 6.55192513 14.2197852 6.51388388 17.2658405L.0516274038 17.2665033C.262552521 12.4225099 4.17706455 8.51410719 9.10306611 8.16810766M29.834186 31.6659167C33.8461787 28.5201049 36.4642315 23.6787628 36.5997534 18.2189963L31.1666485 18.2186649C31.0525248 23.4935006 28.8121672 27.3677674 26.6203801 29.9866259 27.5883939 30.4439816 28.6396229 31.0000996 29.834186 31.6659167M19.3551816 3.37316399C20.5538205 4.14370892 21.6138805 4.99710814 22.5863098 6.0172102 23.4154052 5.79085227 24.240085 5.49390248 25.1483198 5.10813289 24.2485764 4.06450022 23.2669764 3.08085404 22.0153515 2.0610834 21.4824344 1.6153273 21.939269 1.16957121 22.5486083 1.68956475 22.7208128 1.83671398 24.2485764 2.87272406 25.9770755 4.77605289 26.9376169 4.33294813 28.1067059 3.76987035 29.0444905 3.21739792 26.1730558 1.19774166 22.6719026.0115996011 18.8935919.0115996011 16.9806607.0115996011 14.991647.348982284 13.2665445.911397227 15.1129035 1.27595612 16.8563473 1.93315637 18.4459279 2.82599424L18.4367573 1.46685241C18.4367573.798052554 19.3504265.723815107 19.3504265 1.46685241L19.3504265 3.37316399 19.3551816 3.37316399"/>
      <path d="M25.7658107,29.6482489 C29.7064761,24.7439376 30.190483,19.9907525 30.190483,18.2136936 L27.390036,18.2126994 C27.2769312,22.2102533 25.7539228,25.8637962 23.2883746,28.7169667 C24.044784,28.9234396 24.9523394,29.3015866 25.7658107,29.6482489"/>
    </g>
  </g>
</svg>

<svg xmlns="http://www.w3.org/2000/svg" width="37" height="36"><g fill="none" fill-rule="evenodd"><path d="M-18-18h72v72h-72z"/><g fill="#48484F"><path d="M13.117 34.496c1.81.626 3.753.966 5.776.966 3.778 0 7.222-1.149 10.094-3.169a42.634 42.634 0 0 0-3.071-1.561c-1.717 1.898-3.197 2.906-3.368 3.052-.61.52-1.066.074-.533-.372a24.027 24.027 0 0 0 3.134-3.054 20.104 20.104 0 0 0-2.563-.902 16.912 16.912 0 0 1-3.236 2.619v1.932c0 .743-.914.668-.914 0v-1.412a17.305 17.305 0 0 1-5.319 1.901m18.05-17.241c-.115-4.903-2.384-9.182-4.572-11.781.822-.33 2.116-.98 3.24-1.666 3.985 3.146 6.627 8.006 6.765 13.446h-5.433m-20.843 9.997c3.815-.194 6.692-2.76 8.118-6.05h-7.748v-2.993h-3.11c0 1.495.304 5.609 2.74 9.043m-1.298-.018c-1.475-2.4-2.55-5.98-2.55-9.026H.054c.243 4.788 4.105 8.647 8.972 9.026m9.37-12.858h-7.702v2.89h-3.11c0-1.477.363-5.14 2.741-9.11 3.094.152 5.812 1.8 7.498 4.111h.573v2.109"/><path d="M19.369 12.258l7.061-.014c-.717-2.024-1.728-3.881-3.121-5.497.8-.218 1.556-.54 2.428-.905 3.923 4.896 4.444 9.643 4.444 11.418h-2.8a16.742 16.742 0 0 0-.322-2.891h-7.69v-2.111M9.103 8.168c-1.424 2.376-2.551 6.052-2.59 9.098H.053c.21-4.843 4.125-8.752 9.051-9.098m20.731 23.498c4.012-3.146 6.63-7.987 6.766-13.447h-5.433c-.114 5.275-2.355 9.149-4.547 11.768.968.457 2.02 1.013 3.214 1.679M19.355 3.373a17.336 17.336 0 0 1 3.231 2.644c.83-.226 1.654-.523 2.562-.909a24.27 24.27 0 0 0-3.133-3.047c-.533-.446-.076-.891.534-.371.172.147 1.7 1.183 3.428 3.086.96-.443 2.13-1.006 3.067-1.559A17.584 17.584 0 0 0 18.894.012a18.61 18.61 0 0 0-5.627.9 17.496 17.496 0 0 1 5.179 1.914l-.01-1.36c0-.668.914-.742.914 0v1.907h.005"/><path d="M25.766 29.648c3.94-4.904 4.424-9.657 4.424-11.434l-2.8-.001c-.113 3.997-1.636 7.65-4.102 10.504.757.206 1.664.585 2.478.931"/></g></g></svg>
